assets/images/icons/src/crosshairs.svg

<?xml version="1.0" encoding="utf-8"?>
<!-- Generated by IcoMoon.io -->
<!DOCTYPE svg PUBLIC "-//W3C//DTD SVG 1.1//EN" "http://www.w3.org/Graphics/SVG/1.1/DTD/svg11.dtd">
<svg version="1.1" xmlns="http://www.w3.org/2000/svg" xmlns:xlink="http://www.w3.org/1999/xlink" width="12" height="14" viewBox="0 0 12 14">
<path fill="#444444" d="M9.352 8h-0.852q-0.203 0-0.352-0.148t-0.148-0.352v-1q0-0.203 0.148-0.352t0.352-0.148h0.852q-0.25-0.844-0.879-1.473t-1.473-0.879v0.852q0 0.203-0.148 0.352t-0.352 0.148h-1q-0.203 0-0.352-0.148t-0.148-0.352v-0.852q-0.844 0.25-1.473 0.879t-0.879 1.473h0.852q0.203 0 0.352 0.148t0.148 0.352v1q0 0.203-0.148 0.352t-0.352 0.148h-0.852q0.25 0.844 0.879 1.473t1.473 0.879v-0.852q0-0.203 0.148-0.352t0.352-0.148h1q0.203 0 0.352 0.148t0.148 0.352v0.852q0.844-0.25 1.473-0.879t0.879-1.473zM12 6.5v1q0 0.203-0.148 0.352t-0.352 0.148h-1.117q-0.289 1.258-1.207 2.176t-2.176 1.207v1.117q0 0.203-0.148 0.352t-0.352 0.148h-1q-0.203 0-0.352-0.148t-0.148-0.352v-1.117q-1.258-0.289-2.176-1.207t-1.207-2.176h-1.117q-0.203 0-0.352-0.148t-0.148-0.352v-1q0-0.203 0.148-0.352t0.352-0.148h1.117q0.289-1.258 1.207-2.176t2.176-1.207v-1.117q0-0.203 0.148-0.352t0.352-0.148h1q0.203 0 0.352 0.148t0.148 0.352v1.117q1.258 0.289 2.176 1.207t1.207 2.176h1.117q0.203 0 0.352 0.148t0.148 0.352z"></path>
</svg>

<svg xmlns="http://www.w3.org/2000/svg" width="12" height="14" viewBox="0 0 12 14"><path fill="#444" d="M9.352 8H8.5q-.203 0-.352-.148T8 7.5v-1q0-.203.148-.352T8.5 6h.852q-.25-.844-.879-1.473T7 3.648V4.5q0 .203-.148.352T6.5 5h-1q-.203 0-.352-.148T5 4.5v-.852q-.844.25-1.473.879T2.648 6H3.5q.203 0 .352.148T4 6.5v1q0 .203-.148.352T3.5 8h-.852q.25.844.879 1.473T5 10.352V9.5q0-.203.148-.352T5.5 9h1q.203 0 .352.148T7 9.5v.852q.844-.25 1.473-.879T9.352 8zM12 6.5v1q0 .203-.148.352T11.5 8h-1.117q-.289 1.258-1.207 2.176T7 11.383V12.5q0 .203-.148.352T6.5 13h-1q-.203 0-.352-.148T5 12.5v-1.117q-1.258-.289-2.176-1.207T1.617 8H.5q-.203 0-.352-.148T0 7.5v-1q0-.203.148-.352T.5 6h1.117q.289-1.258 1.207-2.176T5 2.617V1.5q0-.203.148-.352T5.5 1h1q.203 0 .352.148T7 1.5v1.117q1.258.289 2.176 1.207T10.383 6H11.5q.203 0 .352.148T12 6.5z"/></svg>
